assets/ai/ai-acm-square.svg

<svg xmlns="http://www.w3.org/2000/svg" width="100%" height="100%" viewBox="-75.52 -43.52 599.04 599.04"><path d="M 48 32 C 21.5 32 0 53.5 0 80 L 0 432 C 0 458.5 21.5 480 48 480 L 400 480 C 426.5 480 448 458.5 448 432 L 448 80 C 448 53.5 426.5 32 400 32 L 48 32 z M 224 96 L 384 256 L 224 416 L 64 256 L 224 96 z M 224.01367 157.51953 C 169.85627 157.51953 125.93945 201.43843 125.93945 255.625 C 125.93945 309.78204 169.85627 353.66992 224.01367 353.66992 C 278.20025 353.66992 322.06055 309.78241 322.06055 255.625 C 322.06055 201.43843 278.20025 157.51953 224.01367 157.51953 z M 224 167.33984 C 272.6522 167.33984 312.0918 206.77981 312.0918 255.43164 C 312.0918 304.08239 272.65184 343.52344 224 343.52344 C 175.34818 343.52344 135.91016 304.08239 135.91016 255.43164 C 135.91016 206.77945 175.34818 167.33984 224 167.33984 z M 164.88867 233.50195 C 161.86482 233.50195 158.93148 233.77059 155.99805 234.31055 C 153.0646 234.8494 150.96763 235.27092 149.65039 235.68945 L 149.65039 245.95703 L 150.72852 245.95703 C 152.76472 245.08895 154.79841 244.3101 156.86523 243.80078 C 158.96121 243.20359 160.75708 242.90234 162.34375 242.90234 C 165.81568 242.90234 168.39276 243.35131 170.12891 244.25 C 171.83407 245.11808 172.73242 246.76507 172.73242 249.07031 L 172.73242 249.33789 C 168.86966 249.54754 165.30853 249.96816 161.95508 250.38672 C 158.6618 250.83588 155.78716 251.64375 153.39258 252.78125 C 151.05778 253.91876 149.26074 255.47647 147.97266 257.42188 C 146.71522 259.33777 146.08594 261.88344 146.08594 265.08594 C 146.08594 268.9487 147.34471 272.06226 149.83008 274.60742 C 152.28482 277.09278 155.39781 278.4082 159.14062 278.4082 C 161.17646 278.4082 162.73188 278.25892 163.83984 277.92969 C 165.00797 277.6898 166.1152 277.24146 167.3125 276.61328 C 168.54077 275.98401 169.46829 275.4446 170.15625 274.81641 A 129.5972 129.5972 0 0 1 172.61133 272.81055 L 172.61133 277.27148 L 185.9043 277.27148 L 185.90625 277.26953 L 185.90625 248.32031 C 185.90625 243.35066 184.22831 239.60902 180.8457 237.1543 C 177.49373 234.7597 172.19383 233.50195 164.88867 233.50195 z M 261.58594 233.58789 C 259.16183 233.58789 257.00781 234.12589 255.12109 235.14453 C 253.20519 236.19415 251.13854 237.65976 248.98242 239.48633 L 248.98242 234.78711 L 235.7207 234.78711 L 235.7207 277.26758 L 248.98438 277.26758 L 248.98438 247.12109 C 249.94178 246.46264 250.9577 245.86467 252.00586 245.32617 C 253.05369 244.84649 254.10297 244.60742 255.21094 244.60742 C 256.61895 244.60742 257.72592 244.78632 258.56445 245.23438 C 259.34173 245.65291 259.91153 246.28307 260.33008 247.21094 C 260.71944 248.10928 260.89758 249.30802 261.01758 250.74414 C 261.10688 252.21086 261.13672 253.94831 261.13672 256.01367 L 261.13672 277.26953 L 274.39844 277.26953 L 274.39844 247.12305 C 275.5666 246.34432 276.64479 245.68546 277.63281 245.23633 C 278.64999 244.78821 279.6376 244.60742 280.65625 244.60742 C 282.06318 244.60742 283.20122 244.78823 283.97852 245.23633 C 284.75725 245.65485 285.38626 246.28505 285.74609 247.21289 C 286.13546 248.11123 286.37414 249.31 286.46484 250.74609 C 286.55391 252.21281 286.58398 253.94829 286.58398 256.01367 L 286.58398 277.26758 L 299.81836 277.26758 L 299.81836 249.63477 C 299.81836 246.58137 299.54921 244.15627 298.91992 242.26953 C 298.35193 240.38282 297.48267 238.76607 296.25586 237.38867 C 295.2077 236.16184 293.86219 235.20372 292.30469 234.54492 C 290.71656 233.94738 288.95066 233.58789 286.97461 233.58789 C 284.66791 233.58789 282.39521 234.21585 280.11914 235.50391 C 277.9032 236.79052 275.47874 238.617 272.93359 240.98242 C 271.88538 238.49706 270.41866 236.67017 268.38281 235.44336 C 266.46693 234.21545 264.16063 233.58789 261.58594 233.58789 z M 214.61523 233.58984 C 211.50205 233.58984 208.50817 234.00887 205.66406 234.87695 C 202.75978 235.71441 200.2736 237.03352 198.14844 238.79883 C 195.90297 240.62574 194.19822 242.96057 192.91016 245.80469 C 191.59292 248.70969 190.99414 252.09216 190.99414 256.19336 C 190.99414 259.93471 191.56248 263.25754 192.75977 266.04297 C 193.95706 268.79776 195.60362 271.10303 197.75977 272.98828 C 199.91555 274.81485 202.43141 276.16329 205.30469 277.06055 C 208.21005 277.92971 211.47206 278.4082 214.97461 278.4082 C 216.82925 278.4082 218.29609 278.28735 219.43359 278.07812 C 220.54156 277.86884 221.79919 277.69 223.05664 277.27148 C 224.13508 277.00202 225.09207 276.64133 226.08008 276.25195 C 227.09764 275.80243 227.96562 275.41467 228.71484 275.08398 L 228.71484 263.76758 L 227.00977 263.76758 C 226.6204 264.21527 226.05114 264.72516 225.42188 265.26367 C 224.79369 265.86229 224.01576 266.37166 223.08789 266.91016 C 222.21982 267.41948 221.14089 267.89774 219.91406 268.28711 C 218.62599 268.61637 217.12912 268.82617 215.45312 268.82617 C 212.1303 268.82617 209.52487 267.77826 207.54883 265.71289 C 205.57278 263.61689 204.55469 260.41487 204.55469 256.19336 C 204.55469 252.21066 205.54258 249.0379 207.36914 246.70312 C 209.22378 244.30852 211.85958 243.14062 215.24219 243.14062 C 216.73808 243.14063 218.0863 243.35022 219.34375 243.70898 C 220.48125 244.12896 221.61963 244.48729 222.57812 245.08594 C 223.50598 245.56607 224.28243 246.10487 225.0918 246.76367 C 225.83956 247.30217 226.52911 247.87105 227.00781 248.37891 L 228.71484 248.37891 L 228.71484 237.03125 C 226.34942 235.83395 224.01385 234.96489 221.64844 234.45703 C 219.34463 233.88899 216.95112 233.58984 214.61523 233.58984 z M 172.61328 257.33203 L 172.61328 266.16406 C 171.6548 267.09194 170.57776 267.8709 169.32031 268.34961 C 168.15364 268.94817 166.95428 269.12695 165.87695 269.12695 C 163.75178 269.12695 162.16537 268.79804 161.11719 268.04883 C 160.06938 267.30108 159.5 265.92332 159.5 263.94727 C 159.5 262.62968 159.86072 261.55338 160.51953 260.71484 C 161.11817 259.8763 162.01546 259.27804 163.18359 258.88867 C 164.50083 258.37935 165.87674 258.11052 167.22461 257.96094 C 168.57247 257.78193 170.36781 257.57068 172.61328 257.33203 z"/></svg>

<svg xmlns="http://www.w3.org/2000/svg" width="100%" height="100%" viewBox="-75.52 -43.52 599.04 599.04"><path d="M48 32C21.5 32 0 53.5 0 80v352c0 26.5 21.5 48 48 48h352c26.5 0 48-21.5 48-48V80c0-26.5-21.5-48-48-48H48zm176 64l160 160-160 160L64 256 224 96zm.014 61.52c-54.158 0-98.075 43.918-98.075 98.105 0 54.157 43.917 98.045 98.075 98.045 54.186 0 98.047-43.888 98.047-98.045 0-54.187-43.86-98.105-98.047-98.105zm-.014 9.82c48.652 0 88.092 39.44 88.092 88.092 0 48.65-39.44 88.091-88.092 88.091s-88.09-39.44-88.09-88.091c0-48.653 39.438-88.092 88.09-88.092zm-59.111 66.162c-3.024 0-5.958.269-8.891.809-2.933.538-5.03.96-6.348 1.378v10.268h1.079c2.036-.868 4.07-1.647 6.136-2.156 2.096-.597 3.892-.899 5.479-.899 3.472 0 6.049.45 7.785 1.348 1.705.868 2.603 2.515 2.603 4.82v.268c-3.862.21-7.423.63-10.777 1.049-3.293.449-6.168 1.257-8.562 2.394-2.335 1.138-4.132 2.695-5.42 4.64-1.258 1.917-1.887 4.462-1.887 7.665 0 3.863 1.259 6.976 3.744 9.521 2.455 2.486 5.568 3.801 9.31 3.801 2.036 0 3.592-.15 4.7-.478 1.168-.24 2.275-.689 3.472-1.317 1.229-.629 2.156-1.168 2.844-1.797a129.597 129.597 0 012.455-2.005v4.46h13.293l.002-.001v-28.95c0-4.97-1.678-8.711-5.06-11.166-3.352-2.394-8.652-3.652-15.957-3.652zm96.697.086c-2.424 0-4.578.538-6.465 1.557-1.916 1.05-3.982 2.515-6.139 4.341v-4.699h-13.261v42.48h13.263v-30.146a27.57 27.57 0 013.022-1.795c1.048-.48 2.097-.719 3.205-.719 1.408 0 2.515.18 3.353.627.778.419 1.348 1.05 1.766 1.977.39.898.568 2.097.688 3.533.089 1.467.119 3.204.119 5.27v21.256h13.261v-30.147c1.169-.779 2.247-1.438 3.235-1.887a7.32 7.32 0 013.023-.629c1.407 0 2.545.181 3.323.63.778.418 1.407 1.048 1.767 1.976.39.898.628 2.097.719 3.533.089 1.467.119 3.202.119 5.268v21.254h13.234v-27.633c0-3.054-.269-5.479-.898-7.365-.568-1.887-1.437-3.504-2.664-4.881-1.048-1.227-2.394-2.185-3.951-2.844a14.987 14.987 0 00-5.33-.957c-2.307 0-4.58.628-6.856 1.916-2.216 1.287-4.64 3.113-7.185 5.478-1.049-2.485-2.515-4.312-4.551-5.539-1.916-1.228-4.222-1.855-6.797-1.855zm-46.97.002c-3.114 0-6.108.419-8.952 1.287-2.904.837-5.39 2.157-7.516 3.922-2.245 1.827-3.95 4.162-5.238 7.006-1.317 2.905-1.916 6.287-1.916 10.388 0 3.742.568 7.065 1.766 9.85 1.197 2.755 2.844 5.06 5 6.945 2.156 1.827 4.671 3.175 7.545 4.073 2.905.869 6.167 1.347 9.67 1.347 1.854 0 3.321-.12 4.459-.33 1.108-.21 2.365-.388 3.623-.807 1.078-.269 2.035-.63 3.023-1.019 1.018-.45 1.886-.837 2.635-1.168v-11.316h-1.705c-.39.447-.959.957-1.588 1.496-.628.598-1.406 1.108-2.334 1.646-.868.51-1.947.988-3.174 1.377-1.288.33-2.785.54-4.46.54-3.324 0-5.93-1.049-7.905-3.114-1.976-2.096-2.994-5.298-2.994-9.52 0-3.982.988-7.155 2.814-9.49 1.855-2.394 4.49-3.562 7.873-3.562 1.496 0 2.844.21 4.102.568 1.137.42 2.276.778 3.234 1.377.928.48 1.704 1.019 2.514 1.678.748.538 1.437 1.107 1.916 1.615h1.707V237.03c-2.366-1.197-4.701-2.066-7.067-2.574a29.592 29.592 0 00-7.033-.867zm-42.003 23.742v8.832c-.958.928-2.035 1.707-3.293 2.186-1.166.598-2.366.777-3.443.777-2.125 0-3.712-.329-4.76-1.078-1.048-.748-1.617-2.126-1.617-4.102 0-1.317.36-2.394 1.02-3.232.598-.839 1.495-1.437 2.664-1.826 1.317-.51 2.693-.778 4.04-.928 1.348-.18 3.144-.39 5.39-.629z"/></svg>
